packages/icons/general/OpenSeaColoredIcon.svg

<svg width="100" height="100" viewBox="0 0 100 100" xmlns="http://www.w3.org/2000/svg">
<g>
        <path
            fill="#2081E2"
            d="M100 50C100 77.6127 77.6127 100 50 100C22.3873 100 0 77.6127 0 50C0 22.3873 22.3873 0 50 0C77.6185 0 100 22.3873 100 50Z"
        />
        <path
            fill="#fff"
            d="M24.6679 51.6801L24.8836 51.341L37.8906 30.9932C38.0807 30.6953 38.5276 30.7261 38.6714 31.0497C40.8444 35.9196 42.7194 41.9762 41.841 45.7468C41.466 47.2982 40.4386 49.3992 39.2827 51.341C39.1338 51.6236 38.9694 51.901 38.7947 52.1681C38.7125 52.2914 38.5738 52.3633 38.4248 52.3633H25.048C24.6884 52.3633 24.4778 51.9729 24.6679 51.6801Z"
        />
        <path
            fill="#fff"
            d="M82.6444 55.461V58.6819C82.6444 58.8668 82.5314 59.0312 82.367 59.1031C81.3602 59.5346 77.9132 61.1168 76.48 63.11C72.8224 68.2008 70.0279 75.48 63.7812 75.48H37.721C28.4847 75.48 21 67.9697 21 58.7024V58.4045C21 58.1579 21.2003 57.9576 21.4469 57.9576H35.9745C36.2621 57.9576 36.4727 58.2247 36.4471 58.5072C36.3443 59.4524 36.519 60.4182 36.9659 61.2966C37.8289 63.0484 39.6166 64.1426 41.5481 64.1426H48.74V58.5278H41.6303C41.2656 58.5278 41.0499 58.1065 41.2605 57.8086C41.3375 57.6904 41.4249 57.5672 41.5173 57.4285C42.1903 56.473 43.1509 54.9884 44.1064 53.2983C44.7588 52.1579 45.3906 50.9404 45.8992 49.7178C46.002 49.4969 46.0841 49.2708 46.1663 49.0499C46.305 48.6595 46.4489 48.2948 46.5516 47.9301C46.6544 47.6218 46.7365 47.2982 46.8187 46.9951C47.0602 45.9574 47.1629 44.8581 47.1629 43.7177C47.1629 43.2708 47.1424 42.8033 47.1013 42.3564C47.0807 41.8684 47.0191 41.3803 46.9574 40.8923C46.9163 40.4608 46.8393 40.0344 46.7571 39.5875C46.6544 38.9351 46.5105 38.2879 46.3461 37.6354L46.2896 37.3889C46.1663 36.9419 46.0636 36.5156 45.9198 36.0687C45.5139 34.6662 45.0465 33.2998 44.5533 32.0207C44.3735 31.5121 44.168 31.0241 43.9625 30.5361C43.6595 29.8015 43.3512 29.1337 43.0687 28.5018C42.9249 28.2141 42.8016 27.9521 42.6783 27.685C42.5396 27.3819 42.3958 27.0788 42.2519 26.7912C42.1492 26.5703 42.031 26.3648 41.9488 26.1593L41.0704 24.536C40.9471 24.3151 41.1526 24.0531 41.394 24.1199L46.8907 25.6096H46.9061C46.9163 25.6096 46.9215 25.6148 46.9266 25.6148L47.6509 25.8151L48.4472 26.0412L48.74 26.1233V22.8562C48.74 21.2791 50.0037 20 51.5654 20C52.3462 20 53.0551 20.3185 53.5637 20.8373C54.0722 21.3562 54.3907 22.0651 54.3907 22.8562V27.7056L54.9764 27.8699C55.0226 27.8854 55.0688 27.9059 55.1099 27.9367C55.2538 28.0446 55.4592 28.2038 55.7212 28.3991C55.9267 28.5634 56.1476 28.7638 56.4147 28.9693C56.9438 29.3956 57.5757 29.9453 58.2692 30.5772C58.4541 30.7364 58.6339 30.9008 58.7983 31.0652C59.6922 31.8974 60.6939 32.8734 61.6494 33.9522C61.9165 34.2553 62.1785 34.5635 62.4456 34.8871C62.7127 35.2159 62.9953 35.5395 63.2418 35.8632C63.5655 36.2947 63.9148 36.7416 64.2179 37.2091C64.3617 37.43 64.5261 37.656 64.6648 37.8769C65.0552 38.4676 65.3994 39.079 65.7282 39.6903C65.8669 39.9728 66.0107 40.281 66.134 40.5841C66.4987 41.4009 66.7864 42.2331 66.9713 43.0653C67.0278 43.2451 67.0689 43.4403 67.0895 43.615V43.6561C67.1511 43.9026 67.1717 44.1646 67.1922 44.4317C67.2744 45.2845 67.2333 46.1372 67.0484 46.9951C66.9713 47.3599 66.8686 47.704 66.7453 48.0688C66.622 48.4181 66.4987 48.7828 66.3395 49.127C66.0313 49.841 65.6665 50.5551 65.235 51.2229C65.0963 51.4695 64.9319 51.7315 64.7675 51.9781C64.5877 52.24 64.4028 52.4866 64.2384 52.7281C64.0124 53.0363 63.771 53.3599 63.5244 53.6476C63.3035 53.9507 63.0775 54.2538 62.8309 54.5209C62.4867 54.9267 62.1579 55.312 61.8137 55.6819C61.6083 55.9233 61.3874 56.1699 61.1613 56.3908C60.9405 56.6373 60.7144 56.8582 60.5089 57.0637C60.1648 57.4079 59.8771 57.675 59.6356 57.8959L59.0706 58.4148C58.9884 58.4867 58.8805 58.5278 58.7675 58.5278H54.3907V64.1426H59.8976C61.1305 64.1426 62.3018 63.7059 63.247 62.9045C63.5706 62.622 64.9833 61.3994 66.6528 59.5552C66.7093 59.4935 66.7813 59.4473 66.8635 59.4268L82.0742 55.0295C82.3568 54.9473 82.6444 55.163 82.6444 55.461Z"
        />
    </g>
</svg>

<svg xmlns="http://www.w3.org/2000/svg" width="100" height="100">
    <path fill="#2081E2" d="M100 50c0 27.613-22.387 50-50 50S0 77.613 0 50 22.387 0 50 0c27.618 0 50 22.387 50 50Z"/>
    <path fill="#fff" d="m24.668 51.68.216-.339L37.89 30.993a.445.445 0 0 1 .78.057c2.173 4.87 4.048 10.926 3.17 14.697-.375 1.551-1.402 3.652-2.558 5.594-.15.283-.314.56-.488.827a.442.442 0 0 1-.37.195H25.048c-.36 0-.57-.39-.38-.683Z"/>
    <path fill="#fff" d="M82.644 55.461v3.22c0 .186-.113.35-.277.422-1.007.432-4.454 2.014-5.887 4.007-3.658 5.09-6.452 12.37-12.699 12.37h-26.06C28.485 75.48 21 67.97 21 58.702v-.297c0-.247.2-.447.447-.447h14.527c.288 0 .499.267.473.55a4.959 4.959 0 0 0 .519 2.789 5.111 5.111 0 0 0 4.582 2.846h7.192v-5.615h-7.11a.458.458 0 0 1-.37-.72c.078-.118.165-.24.257-.38a51.806 51.806 0 0 0 2.59-4.13c.652-1.14 1.284-2.358 1.792-3.58.103-.221.185-.447.267-.668.139-.39.283-.755.386-1.12.102-.308.184-.632.267-.935.241-1.038.344-2.137.344-3.277 0-.447-.02-.915-.062-1.362-.02-.488-.082-.976-.144-1.464a15.176 15.176 0 0 0-.2-1.305 21.99 21.99 0 0 0-.41-1.952l-.057-.246c-.124-.447-.226-.873-.37-1.32a49.81 49.81 0 0 0-1.367-4.048c-.18-.509-.385-.997-.59-1.485-.303-.735-.612-1.402-.894-2.034-.144-.288-.267-.55-.39-.817a28.758 28.758 0 0 0-.427-.894c-.103-.22-.221-.426-.303-.632l-.879-1.623a.286.286 0 0 1 .324-.416l5.497 1.49h.015c.01 0 .016.005.02.005l.725.2.796.226.293.082v-3.267c0-1.577 1.264-2.856 2.825-2.856.781 0 1.49.319 1.999.837.508.52.827 1.228.827 2.02v4.849l.585.164a.468.468 0 0 1 .134.067c.144.108.35.267.611.462.206.164.427.365.694.57.529.427 1.16.976 1.854 1.608.185.16.365.324.53.488a42.349 42.349 0 0 1 2.85 2.887c.267.303.53.611.797.935.267.329.55.652.796.976.324.432.673.879.976 1.346.144.221.308.447.447.668.39.59.734 1.202 1.063 1.813.139.283.283.591.406.894.365.817.652 1.65.837 2.481.057.18.098.375.118.55v.041c.062.247.083.509.103.776a8.298 8.298 0 0 1-.144 2.563 9.34 9.34 0 0 1-.303 1.074c-.123.35-.246.714-.406 1.058a14.347 14.347 0 0 1-1.104 2.096c-.139.246-.303.508-.468.755-.18.262-.364.509-.529.75-.226.308-.467.632-.714.92-.22.303-.447.606-.693.873a33.57 33.57 0 0 1-1.017 1.16c-.206.242-.427.489-.653.71-.22.246-.447.467-.652.673-.344.344-.632.611-.873.832l-.565.519a.461.461 0 0 1-.303.113H54.39v5.615h5.507a5.152 5.152 0 0 0 3.349-1.239c.324-.282 1.736-1.505 3.406-3.349a.427.427 0 0 1 .21-.128l15.211-4.398a.449.449 0 0 1 .57.432Z"/>
</svg>
